ix/monitor_outline.svg

<svg viewBox="0 0 24 24" fill="none" xmlns="http://www.w3.org/2000/svg" height="1em" width="1em">
  <path d="M17.56 17.97H6.44c-3.98 0-5.19-1.21-5.19-5.19V6.44c0-3.98 1.21-5.19 5.19-5.19h11.11c3.98 0 5.19 1.21 5.19 5.19v6.33c.01 3.99-1.2 5.2-5.18 5.2ZM6.44 2.75c-3.14 0-3.69.55-3.69 3.69v6.33c0 3.14.55 3.69 3.69 3.69h11.11c3.14 0 3.69-.55 3.69-3.69V6.44c0-3.14-.55-3.69-3.69-3.69H6.44Z" fill="#292D32"/>
  <path d="M12 22.75c-.41 0-.75-.34-.75-.75v-4.78c0-.41.34-.75.75-.75s.75.34.75.75V22c0 .41-.34.75-.75.75Zm10-9H2c-.41 0-.75-.34-.75-.75s.34-.75.75-.75h20c.41 0 .75.34.75.75s-.34.75-.75.75Z" fill="#292D32"/>
  <path d="M16.5 22.75h-9c-.41 0-.75-.34-.75-.75s.34-.75.75-.75h9c.41 0 .75.34.75.75s-.34.75-.75.75Z" fill="#292D32"/>
</svg>

<svg viewBox="0 0 24 24" fill="none" xmlns="http://www.w3.org/2000/svg" height="1em" width="1em">
  <path d="M17.56 17.97H6.44C2.46 17.97 1.25 16.76 1.25 12.78V6.44C1.25 2.46 2.46 1.25 6.44 1.25H17.55C21.53 1.25 22.74 2.46 22.74 6.44V12.77C22.75 16.76 21.54 17.97 17.56 17.97ZM6.44 2.75C3.3 2.75 2.75 3.3 2.75 6.44V12.77C2.75 15.91 3.3 16.46 6.44 16.46H17.55C20.69 16.46 21.24 15.91 21.24 12.77V6.44C21.24 3.3 20.69 2.75 17.55 2.75H6.44Z" fill="#292D32"/>
  <path d="M12 22.75C11.59 22.75 11.25 22.41 11.25 22V17.22C11.25 16.81 11.59 16.47 12 16.47C12.41 16.47 12.75 16.81 12.75 17.22V22C12.75 22.41 12.41 22.75 12 22.75Z" fill="#292D32"/>
  <path d="M22 13.75H2C1.59 13.75 1.25 13.41 1.25 13C1.25 12.59 1.59 12.25 2 12.25H22C22.41 12.25 22.75 12.59 22.75 13C22.75 13.41 22.41 13.75 22 13.75Z" fill="#292D32"/>
  <path d="M16.5 22.75H7.5C7.09 22.75 6.75 22.41 6.75 22C6.75 21.59 7.09 21.25 7.5 21.25H16.5C16.91 21.25 17.25 21.59 17.25 22C17.25 22.41 16.91 22.75 16.5 22.75Z" fill="#292D32"/>
</svg>
